X:1
T: Archibald Minto
C:
R:Jig
Q:180
K:G
M:6/8
L:1/16
d2|g4g2 g2a2b2|e4c2 c4e2|d2B2d2 g2d2B2|c4A2 A4d2|g4g2 g2a2b2|e4c2 c4e2|d4g2 f2g2a2|g6 g4d2|
g4g2 g2a2b2|e4c2 c4e2|d2B2d2 g2d2B2|c4A2 A4d2|g4g2 g2a2b2|e4c2 c4e2|d4g2 f2g2a2|g6 g6|
e4c2 c2d2e2|d4B2 B6|c4A2 A2B2c2|B4G2 G6|e4c2 c2d2e2|d4B2 g6|f2e2d2 ^c2d2e2|d2e2d2 d2e2f2|
g4g2 g2a2b2|e4c2 c4e2|d2B2d2 g2d2B2|c4A2 A4d2|g4g2 g2a2b2|e4c2 c4e2|d4g2 f2g2a2|g6 g4||
